curriculum/images/exercise-icons/turn-around.svg

<svg width="85" height="82" viewBox="0 0 85 82" fill="none" xmlns="http://www.w3.org/2000/svg">
<path d="M1 41C1 51.6087 5.21427 61.7828 12.7157 69.2843C20.2172 76.7857 30.3913 81 41 81C51.6087 81 61.7828 76.7857 69.2843 69.2843C76.7857 61.7828 81 51.6087 81 41C81 30.3913 76.7857 20.2172 69.2843 12.7157C61.7828 5.21427 51.6087 1 41 1C30.3913 1 20.2172 5.21427 12.7157 12.7157C5.21427 20.2172 1 30.3913 1 41Z" fill="#DAEDF7" stroke="#DAEDF7"/>
<path d="M78.7789 37.3237C78.6542 37.1068 78.488 36.9168 78.2897 36.7643C78.0914 36.6119 77.865 36.5001 77.6234 36.4354C77.3818 36.3706 77.1298 36.3542 76.8819 36.3871C76.634 36.42 76.395 36.5015 76.1786 36.6269L73.3815 38.241C73.7742 33.6364 72.8406 29.0157 70.6911 24.9248C68.5416 20.8338 65.266 17.4437 61.2513 15.1548L62.5963 14.8413C62.8397 14.7845 63.0696 14.6804 63.2727 14.5349C63.4759 14.3893 63.6484 14.2051 63.7804 13.9929C63.9124 13.7807 64.0013 13.5445 64.042 13.298C64.0828 13.0514 64.0745 12.7992 64.0178 12.5558C63.9611 12.3124 63.8569 12.0825 63.7114 11.8794C63.5658 11.6762 63.3817 11.5037 63.1695 11.3717C62.9572 11.2397 62.7211 11.1508 62.4745 11.1101C62.2279 11.0694 61.9757 11.0776 61.7323 11.1343L54.654 12.7846C54.5727 12.8149 54.4938 12.8512 54.4179 12.8931C54.2942 12.9356 54.1753 12.9909 54.0631 13.0579C53.9652 13.1281 53.8744 13.2078 53.7923 13.296C53.702 13.3753 53.62 13.4636 53.5477 13.5596C53.4761 13.6713 53.4167 13.7905 53.3707 13.9149C53.3267 13.9898 53.2882 14.0677 53.2555 14.148C53.248 14.1761 53.2562 14.2031 53.2509 14.2307C53.2233 14.4819 53.2188 14.7351 53.2377 14.987C53.2435 15.0155 53.2341 15.043 53.2409 15.0717L54.8914 22.1491C54.9481 22.3924 55.0521 22.6222 55.1976 22.8253C55.3431 23.0284 55.5272 23.2008 55.7393 23.3328C55.9514 23.4648 56.1875 23.5537 56.434 23.5944C56.6805 23.6352 56.9326 23.627 57.1759 23.5703C57.4192 23.5136 57.649 23.4095 57.8521 23.2641C58.0552 23.1186 58.2277 22.9345 58.3596 22.7224C58.4916 22.5102 58.5805 22.2742 58.6212 22.0277C58.662 21.7812 58.6538 21.5291 58.5971 21.2858L57.7446 17.6285C61.2879 19.2448 64.2943 21.8419 66.4083 25.1128C68.5224 28.3837 69.6556 32.1915 69.674 36.086L68.8544 34.6665C68.7294 34.45 68.563 34.2603 68.3647 34.1081C68.1664 33.9559 67.94 33.8443 67.6986 33.7796C67.4571 33.7149 67.2053 33.6984 66.9575 33.731C66.7096 33.7636 66.4706 33.8448 66.2542 33.9698C66.0377 34.0947 65.8479 34.2612 65.6957 34.4595C65.5436 34.6578 65.4319 34.8841 65.3672 35.1256C65.3026 35.3671 65.286 35.6189 65.3187 35.8667C65.3513 36.1146 65.4324 36.3535 65.5574 36.57L69.1912 42.864C69.1912 42.864 69.1996 42.8714 69.2024 42.8763C69.3904 43.199 69.6699 43.4586 70.0055 43.6222C70.3411 43.7859 70.7178 43.8462 71.0877 43.7956C71.3281 43.763 71.56 43.6846 71.7708 43.5645C71.7708 43.5645 71.7827 43.5625 71.7886 43.56L78.0821 39.9239C78.299 39.7993 78.489 39.6331 78.6415 39.4348C78.7939 39.2365 78.9057 39.0101 78.9704 38.7685C79.0352 38.5269 79.0516 38.2749 79.0187 38.027C78.9858 37.779 78.9043 37.54 78.7789 37.3237Z" fill="#B8ECFF" stroke="#009FD9" stroke-linecap="round" stroke-linejoin="round"/>
<path d="M23.0201 15.05C23.023 16.6537 23.6614 18.1908 24.7954 19.3248C25.9293 20.4588 27.4665 21.0971 29.0701 21.1H33.4701C33.7619 21.1 34.0417 21.2159 34.248 21.4222C34.4542 21.6285 34.5701 21.9083 34.5701 22.2V26.6H37.8701V22.2C37.8701 21.9083 37.986 21.6285 38.1923 21.4222C38.3986 21.2159 38.6784 21.1 38.9701 21.1H43.3701C44.9747 21.1 46.5135 20.4626 47.6481 19.328C48.7827 18.1934 49.4201 16.6546 49.4201 15.05C49.4201 13.4454 48.7827 11.9066 47.6481 10.772C46.5135 9.63741 44.9747 9 43.3701 9C42.2402 9.00035 41.1372 9.34508 40.2082 9.98826C39.2791 10.6314 38.5682 11.5425 38.1701 12.6L37.2531 15.05C37.1745 15.2597 37.0338 15.4404 36.8497 15.568C36.6657 15.6955 36.4471 15.7639 36.2231 15.7639C35.9992 15.7639 35.7806 15.6955 35.5965 15.568C35.4125 15.4404 35.2718 15.2597 35.1931 15.05L34.2761 12.6C33.8793 11.5417 33.1687 10.6298 32.2394 9.98648C31.3101 9.34312 30.2064 8.99894 29.0761 9C27.4709 8.99947 25.9311 9.63652 24.7954 10.7711C23.6598 11.9056 23.0212 13.4447 23.0201 15.05ZM41.1701 15.29C41.169 14.8363 41.3023 14.3924 41.5534 14.0145C41.8045 13.6366 42.162 13.3417 42.5807 13.1669C42.9994 12.9922 43.4606 12.9456 43.9058 13.0329C44.351 13.1203 44.7603 13.3377 45.082 13.6577C45.4036 13.9777 45.6232 14.3858 45.7129 14.8306C45.8026 15.2753 45.7583 15.7367 45.5858 16.1563C45.4133 16.576 45.1202 16.935 44.7436 17.1881C44.367 17.4411 43.9239 17.5768 43.4701 17.578C42.8626 17.5767 42.2802 17.3356 41.8495 16.9071C41.4188 16.4787 41.1746 15.8975 41.1701 15.29ZM26.6941 15.29C26.6941 14.8375 26.8283 14.3951 27.0797 14.0189C27.3312 13.6426 27.6885 13.3493 28.1066 13.1762C28.5246 13.003 28.9847 12.9577 29.4285 13.046C29.8723 13.1342 30.28 13.3522 30.6 13.6721C30.92 13.9921 31.1379 14.3998 31.2262 14.8436C31.3145 15.2875 31.2692 15.7475 31.096 16.1656C30.9228 16.5837 30.6295 16.941 30.2533 17.1924C29.877 17.4438 29.4347 17.578 28.9821 17.578C28.3763 17.5749 27.7962 17.3328 27.3678 16.9044C26.9394 16.476 26.6973 15.8958 26.6941 15.29Z" fill="#ADC4D9"/>
<path d="M29.0701 10.9971C30.2004 10.996 31.304 11.3402 32.2333 11.9835C33.1626 12.6269 33.8733 13.5388 34.2701 14.5971C34.4186 14.9936 34.6846 15.3353 35.0325 15.5766C35.3804 15.8178 35.7937 15.9471 36.2171 15.9471C36.6405 15.9471 37.0538 15.8178 37.4017 15.5766C37.7497 15.3353 38.0157 14.9936 38.1641 14.5971C38.5622 13.5396 39.2731 12.6285 40.2021 11.9853C41.1312 11.3421 42.2342 10.9974 43.3641 10.9971C44.7947 10.997 46.1789 11.5045 47.2704 12.4292C48.362 13.354 49.09 14.6359 49.3251 16.0471C49.4759 15.1804 49.4348 14.2912 49.2046 13.4422C48.9745 12.5931 48.561 11.8049 47.9932 11.133C47.4254 10.4611 46.7172 9.92188 45.9184 9.55336C45.1197 9.18484 44.2498 8.99597 43.3701 9.00007C42.2402 9.00041 41.1372 9.34515 40.2081 9.98832C39.2791 10.6315 38.5682 11.5426 38.1701 12.6001L37.2531 15.0491C37.1745 15.2588 37.0338 15.4395 36.8497 15.567C36.6657 15.6946 36.4471 15.7629 36.2231 15.7629C35.9992 15.7629 35.7806 15.6946 35.5965 15.567C35.4125 15.4395 35.2717 15.2588 35.1931 15.0491L34.2761 12.6001C33.8793 11.5418 33.1686 10.6299 32.2393 9.98654C31.31 9.34318 30.2064 8.999 29.0761 9.00007C27.4719 9.00112 25.9337 9.63887 24.7993 10.7732C23.6649 11.9076 23.0272 13.4458 23.0261 15.0501C23.028 15.3853 23.0581 15.7199 23.1161 16.0501C23.3517 14.6402 24.0788 13.3592 25.1687 12.4343C26.2585 11.5094 27.6407 11.0002 29.0701 10.9971Z" fill="#DAEDF7"/>
<path d="M23.0201 15.05C23.023 16.6537 23.6614 18.1908 24.7954 19.3248C25.9293 20.4588 27.4665 21.0971 29.0701 21.1H33.4701C33.7619 21.1 34.0417 21.2159 34.248 21.4222C34.4542 21.6285 34.5701 21.9083 34.5701 22.2V26.6H37.8701V22.2C37.8701 21.9083 37.986 21.6285 38.1923 21.4222C38.3986 21.2159 38.6784 21.1 38.9701 21.1H43.3701C44.9747 21.1 46.5135 20.4626 47.6481 19.328C48.7827 18.1934 49.4201 16.6546 49.4201 15.05C49.4201 13.4454 48.7827 11.9066 47.6481 10.772C46.5135 9.63741 44.9747 9 43.3701 9C42.2402 9.00035 41.1372 9.34508 40.2082 9.98826C39.2791 10.6314 38.5682 11.5425 38.1701 12.6L37.2531 15.05C37.1745 15.2597 37.0338 15.4404 36.8497 15.568C36.6657 15.6955 36.4471 15.7639 36.2231 15.7639C35.9992 15.7639 35.7806 15.6955 35.5965 15.568C35.4125 15.4404 35.2718 15.2597 35.1931 15.05L34.2761 12.6C33.8793 11.5417 33.1687 10.6298 32.2394 9.98648C31.3101 9.34312 30.2064 8.99894 29.0761 9C27.4709 8.99947 25.9311 9.63652 24.7954 10.7711C23.6598 11.9056 23.0212 13.4447 23.0201 15.05ZM41.1701 15.29C41.169 14.8363 41.3023 14.3924 41.5534 14.0145C41.8045 13.6366 42.162 13.3417 42.5807 13.1669C42.9994 12.9922 43.4606 12.9456 43.9058 13.0329C44.351 13.1203 44.7603 13.3377 45.082 13.6577C45.4036 13.9777 45.6232 14.3858 45.7129 14.8306C45.8026 15.2753 45.7583 15.7367 45.5858 16.1563C45.4133 16.576 45.1202 16.935 44.7436 17.1881C44.367 17.4411 43.9239 17.5768 43.4701 17.578C42.8626 17.5767 42.2802 17.3356 41.8495 16.9071C41.4188 16.4787 41.1746 15.8975 41.1701 15.29ZM26.6941 15.29C26.6941 14.8375 26.8283 14.3951 27.0797 14.0189C27.3312 13.6426 27.6885 13.3493 28.1066 13.1762C28.5246 13.003 28.9847 12.9577 29.4285 13.046C29.8723 13.1342 30.28 13.3522 30.6 13.6721C30.92 13.9921 31.1379 14.3998 31.2262 14.8436C31.3145 15.2875 31.2692 15.7475 31.096 16.1656C30.9228 16.5837 30.6295 16.941 30.2533 17.1924C29.877 17.4438 29.4347 17.578 28.9821 17.578C28.3763 17.5749 27.7962 17.3328 27.3678 16.9044C26.9394 16.476 26.6973 15.8958 26.6941 15.29Z" stroke="#45413C" stroke-linecap="round" stroke-linejoin="round"/>
<path d="M37.6851 58.0461C37.2575 57.7413 36.7264 57.6186 36.2085 57.7048C35.6905 57.791 35.2279 58.0792 34.9221 58.5061L29.8521 65.6061C29.6997 65.8192 29.4763 65.9709 29.222 66.034C28.9678 66.097 28.6994 66.0673 28.4651 65.9501L25.5391 64.4901C25.0693 64.2552 24.5254 64.2166 24.0271 64.3828C23.5288 64.5489 23.1169 64.9062 22.8821 65.3761C22.6472 65.8459 22.6086 66.3898 22.7748 66.8881C22.941 67.3863 23.2983 67.7982 23.7681 68.0331L31.6881 71.9931C31.9207 72.1093 32.174 72.1787 32.4334 72.1971C32.6928 72.2155 32.9534 72.1826 33.2001 72.1003C33.4468 72.0181 33.6749 71.888 33.8714 71.7176C34.0678 71.5471 34.2288 71.3397 34.3451 71.1071C34.4614 70.8744 34.5307 70.6212 34.5491 70.3617C34.5675 70.1023 34.5346 69.8418 34.4524 69.5951C34.3701 69.3483 34.24 69.1202 34.0696 68.9238C33.8992 68.7273 33.6917 68.5663 33.4591 68.4501C33.3889 68.4152 33.3271 68.3654 33.278 68.3044C33.2289 68.2433 33.1936 68.1722 33.1746 68.0962C33.1555 68.0201 33.1533 67.9409 33.1679 67.8638C33.1824 67.7868 33.2136 67.7139 33.2591 67.6501L38.1431 60.8121C38.2947 60.6004 38.4031 60.3609 38.4621 60.1073C38.5212 59.8538 38.5297 59.591 38.4871 59.3342C38.4446 59.0773 38.3519 58.8313 38.2143 58.6103C38.0766 58.3893 37.8968 58.1976 37.6851 58.0461Z" fill="#FFCC99" stroke="#45413C" stroke-linecap="round" stroke-linejoin="round"/>
<path d="M30.5751 64.597C31.6031 65.4327 32.7206 66.1518 33.9071 66.741L38.1451 60.809C38.4283 60.381 38.5342 59.8597 38.4406 59.3551C38.3471 58.8504 38.0613 58.4018 37.6436 58.1037C37.2258 57.8055 36.7086 57.6812 36.201 57.7568C35.6933 57.8324 35.2349 58.1021 34.9221 58.509L30.5731 64.598" fill="#FFAA54"/>
<path d="M37.6851 58.0461C37.2575 57.7413 36.7264 57.6186 36.2085 57.7048C35.6905 57.791 35.2279 58.0792 34.9221 58.5061L29.8521 65.6061C29.6997 65.8192 29.4763 65.9709 29.222 66.034C28.9678 66.097 28.6994 66.0673 28.4651 65.9501L25.5391 64.4901C25.0693 64.2552 24.5254 64.2166 24.0271 64.3828C23.5288 64.5489 23.1169 64.9062 22.8821 65.3761C22.6472 65.8459 22.6086 66.3898 22.7748 66.8881C22.941 67.3863 23.2983 67.7982 23.7681 68.0331L31.6881 71.9931C31.9207 72.1093 32.174 72.1787 32.4334 72.1971C32.6928 72.2155 32.9534 72.1826 33.2001 72.1003C33.4468 72.0181 33.6749 71.888 33.8714 71.7176C34.0678 71.5471 34.2288 71.3397 34.3451 71.1071C34.4614 70.8744 34.5307 70.6212 34.5491 70.3617C34.5675 70.1023 34.5346 69.8418 34.4524 69.5951C34.3701 69.3483 34.24 69.1202 34.0696 68.9238C33.8992 68.7273 33.6917 68.5663 33.4591 68.4501C33.3889 68.4152 33.3271 68.3654 33.278 68.3044C33.2289 68.2433 33.1936 68.1722 33.1746 68.0962C33.1555 68.0201 33.1533 67.9409 33.1679 67.8638C33.1824 67.7868 33.2136 67.7139 33.2591 67.6501L38.1431 60.8121C38.2947 60.6004 38.4031 60.3609 38.4621 60.1073C38.5212 59.8538 38.5297 59.591 38.4871 59.3342C38.4446 59.0773 38.3519 58.8313 38.2143 58.6103C38.0766 58.3893 37.8968 58.1976 37.6851 58.0461Z" stroke="#45413C" stroke-linecap="round" stroke-linejoin="round"/>
<path opacity="0.15" d="M24.3251 73.1241C24.3251 73.5267 26.1368 73.9128 29.3617 74.1975C32.5865 74.4821 36.9604 74.6421 41.5211 74.6421C46.0817 74.6421 50.4556 74.4821 53.6805 74.1975C56.9054 73.9128 58.7171 73.5267 58.7171 73.1241C58.7171 72.7215 56.9054 72.3354 53.6805 72.0507C50.4556 71.766 46.0817 71.6061 41.5211 71.6061C36.9604 71.6061 32.5865 71.766 29.3617 72.0507C26.1368 72.3354 24.3251 72.7215 24.3251 73.1241Z" fill="#45413C"/>
<path d="M60.8801 47.527C61.0659 47.5273 61.2495 47.5667 61.419 47.6427C61.5885 47.7187 61.7401 47.8296 61.8639 47.9681C61.9877 48.1066 62.0809 48.2696 62.1375 48.4466C62.194 48.6235 62.2127 48.8104 62.1921 48.995C61.1771 58.063 50.9281 65.19 41.6551 65.19C36.9712 65.1887 32.4795 63.3273 29.1677 60.0151C25.8558 56.7029 23.9949 52.211 23.9941 47.527V37.878C23.9941 34.7273 25.2458 31.7056 27.4737 29.4776C29.7016 27.2497 32.7234 25.998 35.8741 25.998C39.0249 25.998 42.0466 27.2497 44.2746 29.4776C46.5025 31.7056 47.7541 34.7273 47.7541 37.878V44.89C47.7541 45.5902 48.0323 46.2617 48.5274 46.7568C49.0225 47.2519 49.694 47.53 50.3941 47.53L60.8801 47.527Z" fill="#FFE500"/>
<path d="M23.9941 42.6901V47.5321C23.9963 52.2151 25.8577 56.7057 29.1694 60.0169C32.4812 63.328 36.9721 65.1887 41.6551 65.1901C50.9281 65.1901 61.1771 58.0651 62.1921 48.9971C62.2248 48.703 62.1579 48.4064 62.0022 48.1548C61.8465 47.9032 61.6109 47.711 61.3331 47.6091C58.5081 54.9711 49.7171 60.3531 41.6521 60.3531C36.9701 60.3483 32.4813 58.4855 29.1717 55.1738C25.862 51.862 24.002 47.3721 24.0001 42.6901" fill="#EBCB00"/>
<path d="M60.8801 47.527C61.0659 47.5273 61.2495 47.5667 61.419 47.6427C61.5885 47.7187 61.7401 47.8296 61.8639 47.9681C61.9877 48.1066 62.0809 48.2696 62.1375 48.4466C62.194 48.6235 62.2127 48.8104 62.1921 48.995C61.1771 58.063 50.9281 65.19 41.6551 65.19C36.9712 65.1887 32.4795 63.3273 29.1677 60.0151C25.8558 56.7029 23.9949 52.211 23.9941 47.527V37.878C23.9941 34.7273 25.2458 31.7056 27.4737 29.4776C29.7016 27.2497 32.7234 25.998 35.8741 25.998C39.0249 25.998 42.0466 27.2497 44.2746 29.4776C46.5025 31.7056 47.7541 34.7273 47.7541 37.878V44.89C47.7541 45.5902 48.0323 46.2617 48.5274 46.7568C49.0225 47.2519 49.694 47.53 50.3941 47.53L60.8801 47.527Z" stroke="#45413C" stroke-linecap="round" stroke-linejoin="round"/>
<path d="M28.3201 37.2181C28.3201 38.7935 28.9459 40.3043 30.0599 41.4183C31.1738 42.5323 32.6847 43.1581 34.2601 43.1581C35.8355 43.1581 37.3463 42.5323 38.4603 41.4183C39.5742 40.3043 40.2001 38.7935 40.2001 37.2181C40.2001 35.6427 39.5742 34.1318 38.4603 33.0179C37.3463 31.9039 35.8355 31.2781 34.2601 31.2781C32.6847 31.2781 31.1738 31.9039 30.0599 33.0179C28.9459 34.1318 28.3201 35.6427 28.3201 37.2181Z" fill="white" stroke="#45413C" stroke-linecap="round" stroke-linejoin="round"/>
<path d="M29.1901 35.1181C29.1901 35.9058 29.503 36.6612 30.06 37.2182C30.6169 37.7752 31.3724 38.0881 32.1601 38.0881C32.9478 38.0881 33.7032 37.7752 34.2602 37.2182C34.8172 36.6612 35.1301 35.9058 35.1301 35.1181C35.1301 34.3304 34.8172 33.5749 34.2602 33.018C33.7032 32.461 32.9478 32.1481 32.1601 32.1481C31.3724 32.1481 30.6169 32.461 30.06 33.018C29.503 33.5749 29.1901 34.3304 29.1901 35.1181Z" fill="#4ACFFF" stroke="#45413C" stroke-linecap="round" stroke-linejoin="round"/>
<path d="M24.9721 37.19C24.8336 37.0052 24.6405 36.8687 24.4201 36.7998C24.1997 36.7308 23.9632 36.733 23.7441 36.806L18.1921 38.657C18.0241 38.7132 17.845 38.7279 17.6701 38.7C17.4083 38.6579 17.14 38.6888 16.8947 38.7893C16.6493 38.8898 16.4365 39.0561 16.2796 39.2697C16.1226 39.4834 16.0277 39.7363 16.0052 40.0005C15.9827 40.2646 16.0335 40.5299 16.1521 40.767L16.6191 41.7C16.7201 41.905 16.755 42.1363 16.7191 42.362C16.6698 42.6736 16.6985 42.9925 16.8027 43.2903C16.9068 43.588 17.0831 43.8554 17.3158 44.0683C17.5484 44.2813 17.8303 44.4333 18.1361 44.5107C18.4419 44.5882 18.7621 44.5886 19.0681 44.512L19.8271 44.322C20.0021 44.279 20.185 44.279 20.3601 44.322L23.7851 45.179C23.9952 45.2315 24.2161 45.2208 24.4202 45.1482C24.6242 45.0756 24.8023 44.9444 24.9321 44.771L27.3001 41.618C27.4429 41.4276 27.5201 41.196 27.5201 40.958C27.5201 40.72 27.4429 40.4884 27.3001 40.298L24.9721 37.19Z" fill="#FFAA54" stroke="#45413C" stroke-linecap="round" stroke-linejoin="round"/>
<path d="M53.4001 47.527C53.4042 48.6853 53.1796 49.8329 52.7392 50.9042C52.2987 51.9754 51.6512 52.9492 50.8336 53.7696C50.0161 54.5901 49.0446 55.241 47.9749 55.6852C46.9052 56.1294 45.7583 56.358 44.6001 56.358" stroke="#45413C" stroke-linecap="round" stroke-linejoin="round"/>
<path d="M36.4491 60.758C38.3423 61.5085 40.3637 61.8822 42.4001 61.858C45.1811 61.858 48.5571 61.152 50.7051 59.35" stroke="#45413C" stroke-linecap="round" stroke-linejoin="round"/>
<path d="M54.6201 65.119C54.2639 64.7343 53.771 64.5048 53.2473 64.4799C52.7236 64.455 52.2111 64.6368 51.8201 64.986C51.762 65.0394 51.693 65.0795 51.6179 65.1036C51.5428 65.1278 51.4634 65.1354 51.385 65.1258C51.3067 65.1163 51.2314 65.09 51.1643 65.0486C51.0971 65.0072 51.0397 64.9517 50.9961 64.886L48.2821 60.775C46.9709 61.295 45.593 61.6279 44.1891 61.764L47.8701 67.34C48.0144 67.5586 48.0759 67.8215 48.0437 68.0815C48.0114 68.3414 47.8874 68.5813 47.6941 68.758L46.5181 69.833C46.1319 70.1878 45.9025 70.6815 45.8802 71.2054C45.8578 71.7293 46.0445 72.2407 46.3991 72.627C46.7521 73.0139 47.2443 73.2447 47.7674 73.2689C48.2905 73.2931 48.8019 73.1086 49.1891 72.756L54.4891 67.911C54.8737 67.5564 55.1032 67.0645 55.1277 66.5419C55.1522 66.0193 54.9698 65.5081 54.6201 65.119Z" fill="#FFCC99"/>
<path d="M48.2821 60.7731C46.9709 61.293 45.593 61.6259 44.1891 61.7621L46.6781 65.5321C48.0311 65.2558 49.356 64.8561 50.6361 64.3381L48.2821 60.7731Z" fill="#FFAA54"/>
<path d="M54.6201 65.119C54.2639 64.7343 53.771 64.5048 53.2473 64.4799C52.7236 64.455 52.2111 64.6368 51.8201 64.986C51.762 65.0394 51.693 65.0795 51.6179 65.1036C51.5428 65.1278 51.4634 65.1354 51.385 65.1258C51.3067 65.1163 51.2314 65.09 51.1643 65.0486C51.0971 65.0072 51.0397 64.9517 50.9961 64.886L48.2821 60.775C46.9709 61.295 45.593 61.6279 44.1891 61.764L47.8701 67.34C48.0144 67.5586 48.0759 67.8215 48.0437 68.0815C48.0114 68.3414 47.8874 68.5813 47.6941 68.758L46.5181 69.833C46.1319 70.1878 45.9025 70.6815 45.8802 71.2054C45.8578 71.7293 46.0445 72.2407 46.3991 72.627C46.7521 73.0139 47.2443 73.2447 47.7674 73.2689C48.2905 73.2931 48.8019 73.1086 49.1891 72.756L54.4891 67.911C54.8737 67.5564 55.1032 67.0645 55.1277 66.5419C55.1522 66.0193 54.9698 65.5081 54.6201 65.119Z" stroke="#45413C" stroke-linecap="round" stroke-linejoin="round"/>
</svg>

<svg xmlns="http://www.w3.org/2000/svg" width="85" height="82" fill="none" viewBox="0 0 85 82"><path fill="#daedf7" stroke="#daedf7" d="M1 41a40 40 0 1 0 80 0 40 40 0 0 0-80 0Z"/><path fill="#b8ecff" stroke="#009fd9" stroke-linecap="round" stroke-linejoin="round" d="M78.779 37.324a1.9 1.9 0 0 0-2.6-.697l-2.797 1.614a24.21 24.21 0 0 0-12.13-23.086l1.344-.314a1.905 1.905 0 0 0 1.115-2.962 1.9 1.9 0 0 0-1.979-.745l-7.078 1.65q-.122.045-.236.11a2 2 0 0 0-.355.164q-.148.106-.27.238a1.8 1.8 0 0 0-.245.264q-.108.167-.177.355a2 2 0 0 0-.116.233c-.007.028.001.055-.004.083a4 4 0 0 0-.013.756c.005.028-.004.056.003.085l1.65 7.077a1.903 1.903 0 1 0 3.706-.863l-.852-3.658a20.39 20.39 0 0 1 11.929 18.458l-.82-1.42a1.904 1.904 0 0 0-3.297 1.904l3.634 6.294s.009.007.011.012a1.886 1.886 0 0 0 2.569.689s.012-.002.018-.005l6.293-3.636a1.9 1.9 0 0 0 .697-2.6"/><path fill="#adc4d9" d="M23.02 15.05a6.06 6.06 0 0 0 6.05 6.05h4.4a1.1 1.1 0 0 1 1.1 1.1v4.4h3.3v-4.4a1.1 1.1 0 0 1 1.1-1.1h4.4a6.05 6.05 0 1 0 0-12.1 5.56 5.56 0 0 0-5.2 3.6l-.917 2.45a1.1 1.1 0 0 1-2.06 0l-.917-2.45a5.55 5.55 0 0 0-5.2-3.6 6.054 6.054 0 0 0-6.056 6.05m18.15.24a2.295 2.295 0 1 1 2.3 2.288 2.305 2.305 0 0 1-2.3-2.288m-14.476 0a2.288 2.288 0 1 1 2.288 2.288 2.3 2.3 0 0 1-2.288-2.288"/><path fill="#daedf7" d="M29.07 10.997a5.55 5.55 0 0 1 5.2 3.6 2.08 2.08 0 0 0 3.894 0 5.56 5.56 0 0 1 5.2-3.6 6.04 6.04 0 0 1 5.961 5.05A6.014 6.014 0 0 0 43.37 9a5.56 5.56 0 0 0-5.2 3.6l-.917 2.45a1.1 1.1 0 0 1-2.06 0l-.917-2.45a5.55 5.55 0 0 0-5.2-3.6 6.054 6.054 0 0 0-6.05 6.05q.003.504.09 1a6.05 6.05 0 0 1 5.954-5.053"/><path stroke="#45413c" stroke-linecap="round" stroke-linejoin="round" d="M23.02 15.05a6.06 6.06 0 0 0 6.05 6.05h4.4a1.1 1.1 0 0 1 1.1 1.1v4.4h3.3v-4.4a1.1 1.1 0 0 1 1.1-1.1h4.4a6.05 6.05 0 1 0 0-12.1 5.56 5.56 0 0 0-5.2 3.6l-.917 2.45a1.1 1.1 0 0 1-2.06 0l-.917-2.45a5.55 5.55 0 0 0-5.2-3.6 6.054 6.054 0 0 0-6.056 6.05m18.15.24a2.295 2.295 0 1 1 2.3 2.288 2.305 2.305 0 0 1-2.3-2.288m-14.476 0a2.288 2.288 0 1 1 2.288 2.288 2.3 2.3 0 0 1-2.288-2.288"/><path fill="#fc9" stroke="#45413c" stroke-linecap="round" stroke-linejoin="round" d="M37.685 58.046a1.983 1.983 0 0 0-2.763.46l-5.07 7.1a1.1 1.1 0 0 1-1.387.344l-2.926-1.46a1.98 1.98 0 1 0-1.77 3.543l7.92 3.96a1.982 1.982 0 0 0 1.77-3.543.543.543 0 0 1-.2-.8l4.884-6.838a1.98 1.98 0 0 0-.458-2.766"/><path fill="#ffaa54" d="M30.575 64.597a18 18 0 0 0 3.332 2.144l4.238-5.932a1.98 1.98 0 0 0-3.223-2.3l-4.349 6.089"/><path stroke="#45413c" stroke-linecap="round" stroke-linejoin="round" d="M37.685 58.046a1.983 1.983 0 0 0-2.763.46l-5.07 7.1a1.1 1.1 0 0 1-1.387.344l-2.926-1.46a1.98 1.98 0 1 0-1.77 3.543l7.92 3.96a1.982 1.982 0 0 0 1.77-3.543.543.543 0 0 1-.2-.8l4.884-6.838a1.98 1.98 0 0 0-.458-2.766"/><path fill="#45413c" d="M24.325 73.124c0 .403 1.812.789 5.037 1.074 3.225.284 7.598.444 12.16.444 4.56 0 8.934-.16 12.159-.444 3.224-.285 5.036-.671 5.036-1.074 0-.402-1.812-.789-5.036-1.073-3.225-.285-7.6-.445-12.16-.445s-8.934.16-12.16.445c-3.224.284-5.036.67-5.036 1.073" opacity=".15"/><path fill="#ffe500" d="M60.88 47.527a1.32 1.32 0 0 1 1.312 1.468C61.177 58.063 50.928 65.19 41.655 65.19a17.666 17.666 0 0 1-17.66-17.663v-9.649a11.88 11.88 0 0 1 23.76 0v7.012a2.64 2.64 0 0 0 2.64 2.64z"/><path fill="#ebcb00" d="M23.994 42.69v4.842A17.667 17.667 0 0 0 41.655 65.19c9.273 0 19.522-7.125 20.537-16.193a1.32 1.32 0 0 0-.859-1.388c-2.825 7.362-11.616 12.744-19.68 12.744A17.67 17.67 0 0 1 24 42.69"/><path stroke="#45413c" stroke-linecap="round" stroke-linejoin="round" d="M60.88 47.527a1.32 1.32 0 0 1 1.312 1.468C61.177 58.063 50.928 65.19 41.655 65.19a17.666 17.666 0 0 1-17.66-17.663v-9.649a11.88 11.88 0 0 1 23.76 0v7.012a2.64 2.64 0 0 0 2.64 2.64z"/><path fill="#fff" stroke="#45413c" stroke-linecap="round" stroke-linejoin="round" d="M28.32 37.218a5.94 5.94 0 1 0 11.88 0 5.94 5.94 0 0 0-11.88 0"/><path fill="#4acfff" stroke="#45413c" stroke-linecap="round" stroke-linejoin="round" d="M29.19 35.118a2.97 2.97 0 1 0 5.94 0 2.97 2.97 0 0 0-5.94 0"/><path fill="#ffaa54" stroke="#45413c" stroke-linecap="round" stroke-linejoin="round" d="M24.972 37.19a1.1 1.1 0 0 0-1.228-.384l-5.552 1.851a1.1 1.1 0 0 1-.522.043 1.442 1.442 0 0 0-1.518 2.067l.467.933c.101.205.136.436.1.662a1.908 1.908 0 0 0 2.35 2.15l.758-.19c.175-.043.358-.043.533 0l3.425.857a1.1 1.1 0 0 0 1.147-.408l2.368-3.153a1.1 1.1 0 0 0 0-1.32z"/><path stroke="#45413c" stroke-linecap="round" stroke-linejoin="round" d="M53.4 47.527a8.8 8.8 0 0 1-8.8 8.831M36.45 60.758a15.6 15.6 0 0 0 5.95 1.1c2.781 0 6.157-.706 8.305-2.508"/><path fill="#fc9" d="M54.62 65.119a2 2 0 0 0-2.8-.133.545.545 0 0 1-.824-.1l-2.714-4.111a15 15 0 0 1-4.093.989l3.681 5.576a1.1 1.1 0 0 1-.176 1.418l-1.176 1.075a1.98 1.98 0 0 0-.119 2.794 1.976 1.976 0 0 0 2.79.129l5.3-4.845a1.99 1.99 0 0 0 .131-2.792"/><path fill="#ffaa54" d="M48.282 60.773c-1.311.52-2.689.853-4.093.99l2.49 3.77a22.6 22.6 0 0 0 3.957-1.195z"/><path stroke="#45413c" stroke-linecap="round" stroke-linejoin="round" d="M54.62 65.119a2 2 0 0 0-2.8-.133.545.545 0 0 1-.824-.1l-2.714-4.111a15 15 0 0 1-4.093.989l3.681 5.576a1.1 1.1 0 0 1-.176 1.418l-1.176 1.075a1.98 1.98 0 0 0-.119 2.794 1.976 1.976 0 0 0 2.79.129l5.3-4.845a1.99 1.99 0 0 0 .131-2.792"/></svg>
